remix/Development/braces-fill.svg

<svg viewBox="0 0 24 24" fill="currentColor" xmlns="http://www.w3.org/2000/svg"><path d="M4 18V14.3C4 13.4716 3.32843 12.8 2.5 12.8H2V11.2H2.5C3.32843 11.2 4 10.5284 4 9.7V6C4 4.34315 5.34315 3 7 3H8V5H7C6.44772 5 6 5.44772 6 6V10.1C6 10.9858 5.42408 11.7372 4.62623 12C5.42408 12.2628 6 13.0142 6 13.9V18C6 18.5523 6.44772 19 7 19H8V21H7C5.34315 21 4 19.6569 4 18ZM20 14.3V18C20 19.6569 18.6569 21 17 21H16V19H17C17.5523 19 18 18.5523 18 18V13.9C18 13.0142 18.5759 12.2628 19.3738 12C18.5759 11.7372 18 10.9858 18 10.1V6C18 5.44772 17.5523 5 17 5H16V3H17C18.6569 3 20 4.34315 20 6V9.7C20 10.5284 20.6716 11.2 21.5 11.2H22V12.8H21.5C20.6716 12.8 20 13.4716 20 14.3Z"/></svg>

<svg viewBox="0 0 24 24" xmlns="http://www.w3.org/2000/svg"><path fill="none" d="M0 0h24v24H0Z"/><path d="M4 18v-3.7 0c0-.83-.68-1.5-1.5-1.5H2v-1.6h.5v-.001c.82 0 1.5-.68 1.5-1.5v-3.7 0c0-1.66 1.34-3 3-3h1v2H7v0c-.56 0-1 .44-1 1v4.1 0c0 .86-.56 1.62-1.38 1.9v0c.82.27 1.37 1.03 1.37 1.9v4.1 0c0 .55.44 1 1 1h1v2h-1v0c-1.66 0-3-1.35-3-3Zm16-3.7V18v0c0 1.65-1.35 3-3 3h-1v-2h1v0c.55 0 1-.45 1-1v-4.1h-.001c-.01-.87.55-1.63 1.37-1.9v0c-.83-.28-1.38-1.04-1.38-1.9V6v0c0-.56-.45-1-1-1h-1V3h1v0c1.65 0 3 1.34 3 3v3.7 0c0 .82.67 1.5 1.5 1.5h.5v1.6h-.5v0c-.83 0-1.5.67-1.5 1.5Z"/></svg>
